icons/file-check-16.svg

<svg width="16" height="16" viewBox="0 0 16 16" fill="none" xmlns="http://www.w3.org/2000/svg">
<path fill-rule="evenodd" clip-rule="evenodd" d="M10.336 0C10.8 0 11.246 0.184 11.573 0.513L14.487 3.427C14.817 3.755 15 4.2 15 4.664V8.251C15 8.44991 14.921 8.64068 14.7803 8.78133C14.6397 8.92198 14.4489 9.001 14.25 9.001C14.0511 9.001 13.8603 8.92198 13.7197 8.78133C13.579 8.64068 13.5 8.44991 13.5 8.251V6H10.75C10.2859 6 9.84075 5.81563 9.51256 5.48744C9.18437 5.15925 9 4.71413 9 4.25V1.5H3.75C3.6837 1.5 3.62011 1.52634 3.57322 1.57322C3.52634 1.62011 3.5 1.6837 3.5 1.75V14.25C3.5 14.388 3.612 14.5 3.75 14.5H7C7.19891 14.5 7.38968 14.579 7.53033 14.7197C7.67098 14.8603 7.75 15.0511 7.75 15.25C7.75 15.4489 7.67098 15.6397 7.53033 15.7803C7.38968 15.921 7.19891 16 7 16H3.75C3.28587 16 2.84075 15.8156 2.51256 15.4874C2.18437 15.1592 2 14.7141 2 14.25V1.75C2 0.784 2.784 0 3.75 0H10.336ZM10.5 4.25C10.5 4.388 10.612 4.5 10.75 4.5H13.438L13.427 4.487L10.513 1.573L10.5 1.562V4.25Z" fill="black"/>
<path d="M15.259 10C15.4072 10.0022 15.5514 10.0481 15.6736 10.1321C15.7957 10.2161 15.8902 10.3343 15.9453 10.4719C16.0004 10.6095 16.0135 10.7603 15.983 10.9054C15.9525 11.0504 15.8798 11.1832 15.774 11.287L11.217 15.737C11.0751 15.8744 10.8849 15.9503 10.6874 15.9485C10.49 15.9466 10.3012 15.867 10.162 15.727L8.22 13.778C8.09685 13.6342 8.03253 13.4493 8.0399 13.2601C8.04728 13.071 8.12582 12.8916 8.2598 12.7579C8.39378 12.6241 8.57331 12.5459 8.76247 12.5389C8.95164 12.5319 9.13648 12.5966 9.28 12.72L10.7 14.145L14.725 10.213C14.8674 10.0741 15.0601 9.99751 15.259 10Z" fill="black"/>
</svg>

<svg xmlns="http://www.w3.org/2000/svg" width="16" height="16" viewBox="0 0 16 16"><path d="M10.336 0c.464 0 .91.184 1.237.513l2.914 2.914c.33.328.513.773.513 1.237v3.587c0 .199-.079.39-.22.53a.747.747 0 0 1-1.06 0 .747.747 0 0 1-.22-.53V6h-2.75c-.464 0-.909-.184-1.237-.513A1.746 1.746 0 0 1 9 4.25V1.5H3.75a.25.25 0 0 0-.25.25v12.5c0 .138.112.25.25.25H7c.199 0 .39.079.53.22a.747.747 0 0 1 0 1.06A.747.747 0 0 1 7 16H3.75c-.464 0-.909-.184-1.237-.513A1.746 1.746 0 0 1 2 14.25V1.75C2 .784 2.784 0 3.75 0Zm.164 4.25c0 .138.112.25.25.25h2.688l-.011-.013-2.914-2.914-.013-.011Z"/><path d="M15.259 10a.754.754 0 0 1 .686.472.746.746 0 0 1-.171.815l-4.557 4.45a.752.752 0 0 1-1.055-.01L8.22 13.778a.754.754 0 0 1 .04-1.02.748.748 0 0 1 1.02-.038l1.42 1.425 4.025-3.932a.753.753 0 0 1 .534-.213Z"/></svg>
